!!!OTL: Der Hammerschmiedssohn Es wollt sich ein stolzer Schuhknecht freien gehn,
!!!ARE: Europa, Mitteleuropa, Deutschland / France, Lothringen, Baumbiedersdorf
!!!YOR: 4, S. 360
!!    1939 gedruckt in Kassel
!!!SCT: Q0088F
!!!YEM: Copyright 1995, estate of Helmut Schaffrath.
**kern
*ICvox
*Ivox
*M2/4
*k[b-]
*F:
{8c
=1
8.f
16f
4f
=2
4g
8g
8a
=3
8b-
8cc
8b-
8a
=4
4g
8r}
{16g
16a
=5
4b-
8b-
8a
=6
4.g
8a
=7
8.f
16f
8f
8d
=8
4d
8r}
{8g
=9
4g
4g
=10
4f
8.b-
16b-
=11
8.a
16a
8g
8e
=12
4f
8r}
==
!!!AGN: Ballade, Verfuehrung, Schwangerschaft, Mord
!!!ONB: ESAC (Essen Associative Code) Database: BALLADE
!!!AMT: simple duple
!!!AIN: vox
!!!EED: Helmut Schaffrath
!!!EEV: 1.0
*-
